; generated by PrusaSlicer 2.8.0 on 2024-10-25 at 02:39:00 UTC


;
;
; 

; external perimeters extrusion width = 0.45mm
; perimeters extrusion width = 0.45mm
; infill extrusion width = 0.45mm
; solid infill extrusion width = 0.45mm
; top infill extrusion width = 0.40mm
; first layer extrusion width = 0.42mm

; external perimeters extrusion width = 0.45mm
; perimeters extrusion width = 0.45mm
; infill extrusion width = 0.45mm
; solid infill extrusion width = 0.45mm
; top infill extrusion width = 0.40mm
; first layer extrusion width = 0.42mm

M73 P0 R26
M73 Q0 S26
M201 X1000 Y1000 Z200 E5000 ; sets maximum accelerations, mm/sec^2
M203 X200 Y200 Z12 E120 ; sets maximum feedrates, mm / sec
M204 S1250 T1250 ; sets acceleration (S) and retract acceleration (R), mm/sec^2
M205 X8.00 Y8.00 Z0.40 E4.50 ; sets the jerk limits, mm/sec
M205 S0 T0 ; sets the minimum extruding and travel feed rate, mm/sec

; printing object miah-waterfall-taper-in.stl id:2 copy 0
; stop printing object miah-waterfall-taper-in.stl id:2 copy 0
; printing object miah-waterfall-taper-out.stl id:1 copy 0
; stop printing object miah-waterfall-taper-out.stl id:1 copy 0

;TYPE:Custom
M862.3 P "MK3S" ; printer model check
M862.1 P0.4 ; nozzle diameter check
M115 U3.14.0 ; tell printer latest fw version
G90 ; use absolute coordinates
M83 ; extruder relative mode
M104 S215 ; set extruder temp
M140 S60 ; set bed temp
M190 S60 ; wait for bed temp
M109 S215 ; wait for extruder temp
G28 W ; home all without mesh bed level
G80 X103.216 Y88.3184 W43.4023 H22.973 ; mesh bed levelling

G1 Z0.2 F720
G1 Y-3 F1000 ; go outside print area
G92 E0
G1 X60 E9 F1000 ; intro line
G1 X100 E12.5 F1000 ; intro line
M73 P0 R25

G92 E0
M221 S95

; Don't change E values below. Excessive value can damage the printer.

M907 E538 ; set extruder motor current
G21 ; set units to millimeters
G90 ; use absolute coordinates
M83 ; use relative distances for extrusion

M900 K0.05 ; Filament gcode LA 1.5
M900 K30 ; Filament gcode LA 1.0




M107
;LAYER_CHANGE
;Z:0.2
;HEIGHT:0.2
G1 E-.8 F2100
G1 Z.6 F720
G1 X105.667 Y93.109 F10800
G1 Z.2 F720
G1 E.8 F2100
M204 S800
;TYPE:Skirt/Brim
;WIDTH:0.42
G1 F1200
G1 X107.02 Y91.622 E.06304
G1 X108.049 Y90.788 E.04153
G1 X108.816 Y90.283 E.02879
G1 X110.408 Y89.484 E.05585
G1 X111.664 Y89.065 E.04151
G1 X112.559 Y88.861 E.02878
G1 X113.873 Y88.693 E.04153
G1 X135.171 Y88.509 E.66781
G1 X136.91 Y88.637 E.05467
G1 X138.888 Y89.124 E.06387
G1 X140.327 Y89.739 E.04907
G1 X142.028 Y90.812 E.06306
G1 X143.51 Y92.172 E.06307
G1 X144.725 Y93.775 E.06307
G1 X145.634 Y95.568 E.06303
G1 X146.157 Y97.271 E.05586
G1 X146.321 Y98.174 E.02878
G1 X146.419 Y100.182 E.06303
G1 X146.209 Y101.951 E.05586
G1 X145.866 Y103.23 E.04152
G1 X145.544 Y104.09 E.02879
G1 X144.725 Y105.672 E.05586
G1 X143.51 Y107.274 E.06304
G1 X142.386 Y108.349 E.04877
G1 X140.731 Y109.49 E.06303
G1 X140.12 Y109.807 E.02158
G1 X138.463 Y110.46 E.05584
G1 X137.174 Y110.765 E.04153
G1 X136.264 Y110.888 E.02879
G1 X113.644 Y111.059 E.70925
G1 X111.886 Y110.769 E.05587
G1 X110.623 Y110.37 E.04153
G1 X109.779 Y110.009 E.02878
G1 X108.618 Y109.372 E.04152
G1 X107.194 Y108.302 E.05585
G1 X106.53 Y107.668 E.02879
G1 X105.397 Y106.293 E.05586
G1 X104.709 Y105.162 E.04151
G1 X104.311 Y104.334 E.0288
G1 X103.855 Y103.091 E.04151
G1 X103.456 Y101.12 E.06305
G1 X103.415 Y99.109 E.06307
G1 X103.487 Y98.425 E.02156
G1 X103.855 Y96.682 E.05586
G1 X104.6 Y94.814 E.06306
G1 X105.635 Y93.16 E.06118
M204 S1000
G1 X105.635 Y93.16 F10800
G1 X105.949 Y93.366
M204 S800
G1 F1200
G1 X105.972 Y93.331 E.00131
G1 X106.814 Y92.353 E.04046
G1 X108.443 Y90.968 E.06704
G1 X109.958 Y90.096 E.05481
G1 X111.97 Y89.371 E.06706
G1 X113.89 Y89.07 E.06094
G1 X135.154 Y88.886 E.66674
G1 X136.86 Y89.01 E.05363
G1 X138.772 Y89.483 E.06176
G1 X140.149 Y90.071 E.04695
G1 X141.793 Y91.107 E.06093
G1 X143.226 Y92.42 E.06094
G1 X144.401 Y93.968 E.06093
G1 X145.281 Y95.701 E.06094
G1 X145.794 Y97.371 E.05478
G1 X145.946 Y98.208 E.02667
G1 X146.044 Y100.148 E.0609
G1 X145.838 Y101.884 E.05481
G1 X145.204 Y103.926 E.06704
G1 X144.401 Y105.478 E.05479
G1 X143.226 Y107.026 E.06093
G1 X141.793 Y108.339 E.06094
M73 Q1 S26
G1 X140.149 Y109.375 E.06093
M73 P1 R25
G1 X138.346 Y110.101 E.06094
G1 X136.247 Y110.511 E.06706
G1 X113.694 Y110.685 E.70715
G1 X111.97 Y110.402 E.05478
G1 X110.74 Y110.011 E.04047
G1 X109.958 Y109.677 E.02666
G1 X108.443 Y108.805 E.05481
G1 X106.814 Y107.42 E.06704
G1 X105.702 Y106.071 E.05481
G1 X104.94 Y104.795 E.0466
G1 X104.219 Y102.991 E.06091
G1 X103.79 Y100.63 E.07524
G1 X103.831 Y98.687 E.06093
G1 X104.279 Y96.596 E.06705
G1 X104.741 Y95.391 E.04046
G1 X105.314 Y94.335 E.03767
G1 X105.916 Y93.416 E.03445
M204 S1000
;WIPE_START
G1 F8640
G1 X105.949 Y93.366 E-.01383
G1 X105.972 Y93.331 E-.00967
G1 X106.814 Y92.353 E-.29799
G1 X108.393 Y91.01 E-.47851
;WIPE_END
G1 Z.6 F720
G1 X107.872 Y94.928 F10800
G1 Z.2 F720
G1 E.8 F2100
M204 S800
G1 F1200
G1 X108.974 Y93.704 E.05164
G1 X110.207 Y92.774 E.04842
G1 X111.607 Y92.08 E.04899
G1 X112.983 Y91.682 E.04491
G1 X113.972 Y91.548 E.03129
G1 X115.951 Y91.633 E.06211
G1 X116.955 Y91.86 E.03227
G1 X118.29 Y92.38 E.04492
G1 X119.593 Y93.175 E.04786
G1 X120.716 Y94.178 E.04721
G1 X121.709 Y95.476 E.05124
G1 X122.44 Y96.966 E.05204
G1 X122.862 Y98.563 E.05179
G1 X122.962 Y100.199 E.05139
G1 X122.77 Y101.693 E.04723
G1 X122.316 Y103.121 E.04698
G1 X121.615 Y104.446 E.047
G1 X120.69 Y105.622 E.04691
G1 X119.596 Y106.597 E.04595
G1 X118.556 Y107.256 E.0386
G1 X117.448 Y107.752 E.03806
G1 X115.908 Y108.146 E.04984
G1 X114.319 Y108.244 E.04992
G1 X112.737 Y108.037 E.05003
G1 X111.21 Y107.529 E.05046
G1 X109.816 Y106.742 E.05019
G1 X108.606 Y105.713 E.0498
G1 X107.678 Y104.572 E.04611
G1 X107.065 Y103.503 E.03864
G1 X106.622 Y102.378 E.03791
G1 X106.31 Y100.949 E.04586
G1 X106.254 Y99.449 E.04706
G1 X106.499 Y97.833 E.05125
G1 X107.045 Y96.313 E.05064
G1 X107.841 Y94.979 E.04871
M204 S1000
G1 X107.841 Y94.979 F10800
G1 X108.164 Y95.173
M204 S800
G1 F1200
G1 X108.186 Y95.138 E.0013
G1 X109.241 Y93.971 E.04933
G1 X110.42 Y93.086 E.04622
G1 X111.728 Y92.437 E.04578
G1 X113.047 Y92.053 E.04307
G1 X114.01 Y91.923 E.03047
G1 X114.891 Y91.92 E.02762
G1 X115.881 Y92.003 E.03115
G1 X116.858 Y92.224 E.03141
G1 X118.138 Y92.725 E.0431
G1 X119.355 Y93.468 E.04471
G1 X120.428 Y94.422 E.04502
G1 X121.38 Y95.66 E.04897
G1 X122.081 Y97.082 E.04971
G1 X122.487 Y98.606 E.04945
G1 X122.586 Y100.169 E.0491
G1 X122.405 Y101.596 E.0451
G1 X121.974 Y102.961 E.04488
G1 X121.307 Y104.227 E.04487
G1 X120.426 Y105.352 E.0448
G1 X119.381 Y106.287 E.04397
G1 X118.39 Y106.918 E.03684
G1 X117.309 Y107.401 E.03712
G1 X115.833 Y107.776 E.04775
G1 X114.349 Y107.868 E.04662
G1 X112.838 Y107.673 E.04777
G1 X111.379 Y107.191 E.04818
G1 X110.046 Y106.442 E.04794
G1 X108.887 Y105.461 E.04761
G1 X107.997 Y104.37 E.04415
G1 X107.411 Y103.352 E.03683
G1 X106.978 Y102.255 E.03698
G1 X106.683 Y100.886 E.04391
G1 X106.631 Y99.454 E.04493
G1 X106.869 Y97.909 E.04901
G1 X107.393 Y96.459 E.04834
G1 X108.133 Y95.224 E.04514
M204 S1000
G1 X108.133 Y95.224 F10800
G1 X108.456 Y95.419
M204 S800
G1 F1200
G1 X108.499 Y95.349 E.00258
G1 X109.508 Y94.238 E.04706
G1 X110.603 Y93.416 E.04293
G1 X111.851 Y92.794 E.04372
G1 X113.112 Y92.425 E.0412
G1 X114.048 Y92.298 E.02962
G1 X115.81 Y92.374 E.0553
G1 X116.761 Y92.589 E.03057
G1 X117.984 Y93.07 E.04121
M73 Q1 S25
G1 X119.143 Y93.78 E.04262
G1 X120.163 Y94.691 E.04288
G1 X121.069 Y95.875 E.04675
G1 X121.722 Y97.197 E.04623
G1 X122.112 Y98.65 E.04717
G1 X122.209 Y100.141 E.04685
G1 X122.04 Y101.5 E.04294
G1 X121.633 Y102.801 E.04274
G1 X120.999 Y104.009 E.04278
G1 X120.162 Y105.083 E.04269
G1 X119.165 Y105.977 E.04199
G1 X118.199 Y106.592 E.03591
G1 X117.171 Y107.05 E.03529
G1 X115.758 Y107.406 E.04569
G1 X114.345 Y107.49 E.04438
G1 X112.904 Y107.302 E.04556
G1 X111.547 Y106.853 E.04482
G1 X110.275 Y106.142 E.04569
G1 X109.167 Y105.208 E.04544
G1 X108.316 Y104.169 E.04211
G1 X107.745 Y103.176 E.03592
G1 X107.335 Y102.131 E.0352
G1 X107.055 Y100.824 E.04191
G1 X107.009 Y99.459 E.04282
G1 X107.238 Y97.985 E.04677
G1 X107.741 Y96.605 E.04605
G1 X108.425 Y95.47 E.04155
M204 S1000
G1 X108.425 Y95.47 F10800
G1 X108.747 Y95.666
M204 S800
G1 F1200
G1 X108.812 Y95.56 E.0039
G1 X109.749 Y94.528 E.04371
G1 X110.788 Y93.745 E.04079
G1 X111.974 Y93.151 E.04159
G1 X113.177 Y92.797 E.03932
G1 X114.086 Y92.674 E.02876
G1 X115.766 Y92.749 E.05273
G1 X116.662 Y92.953 E.02881
G1 X117.83 Y93.414 E.03937
G1 X118.931 Y94.092 E.04054
G1 X119.898 Y94.96 E.04074
G1 X120.758 Y96.088 E.04447
G1 X121.375 Y97.347 E.04396
G1 X121.737 Y98.694 E.04373
G1 X121.833 Y100.113 E.04459
G1 X121.675 Y101.404 E.04078
G1 X121.29 Y102.642 E.04065
G1 X120.691 Y103.792 E.04066
G1 X119.897 Y104.814 E.04058
G1 X118.949 Y105.668 E.04001
G1 X118.033 Y106.253 E.03408
G1 X117.032 Y106.699 E.03436
G1 X115.717 Y107.031 E.04252
G1 X114.375 Y107.114 E.04216
G1 X113.005 Y106.938 E.04331
G1 X111.714 Y106.514 E.04261
G1 X110.503 Y105.841 E.04344
G1 X109.447 Y104.955 E.04322
G1 X108.634 Y103.967 E.04012
G1 X108.091 Y103.025 E.03409
G1 X107.692 Y102.008 E.03425
G1 X107.427 Y100.762 E.03994
G1 X107.386 Y99.465 E.04069
G1 X107.608 Y98.063 E.04451
G1 X108.089 Y96.753 E.04376
G1 X108.716 Y95.717 E.03797
M204 S1000
G1 X108.716 Y95.717 F10800
G1 X109.038 Y95.913
M204 S800
G1 F1200
G1 X109.124 Y95.772 E.00518
G1 X110.016 Y94.796 E.04146
G1 X111 Y94.057 E.03858
G1 X112.097 Y93.508 E.03846
G1 X113.242 Y93.169 E.03744
G1 X114.124 Y93.049 E.02791
G1 X114.851 Y93.051 E.02279
G1 X115.695 Y93.119 E.02655
G1 X116.564 Y93.318 E.02795
G1 X117.675 Y93.759 E.03748
G1 X118.718 Y94.404 E.03845
G1 X119.632 Y95.228 E.03858
G1 X120.428 Y96.272 E.04116
G1 X121.016 Y97.464 E.04167
G1 X121.362 Y98.739 E.04142
G1 X121.456 Y100.086 E.04234
G1 X121.309 Y101.31 E.03865
G1 X120.947 Y102.484 E.03852
G1 X120.382 Y103.575 E.03852
G1 X119.631 Y104.546 E.03849
G1 X118.732 Y105.359 E.038
G1 X117.842 Y105.928 E.03312
G1 X116.894 Y106.347 E.0325
G1 X115.643 Y106.661 E.04044
G1 X114.371 Y106.736 E.03995
G1 X113.072 Y106.567 E.04107
G1 X111.85 Y106.162 E.04036
G1 X110.731 Y105.54 E.04014
G1 X109.726 Y104.701 E.04105
G1 X108.953 Y103.764 E.03809
G1 X108.424 Y102.849 E.03314
G1 X108.049 Y101.886 E.0324
G1 X107.8 Y100.702 E.03794
G1 X107.763 Y99.472 E.03858
G1 X107.977 Y98.141 E.04227
G1 X108.436 Y96.901 E.04146
G1 X109.007 Y95.964 E.0344
M204 S1000
G1 X109.007 Y95.964 F10800
G1 X109.327 Y96.158
M204 S800
G1 F1200
G1 X109.415 Y96.012 E.00534
G1 X110.257 Y95.086 E.03924
G1 X111.186 Y94.386 E.03647
G1 X112.221 Y93.864 E.03635
G1 X113.308 Y93.54 E.03556
G1 X114.161 Y93.425 E.02699
G1 X115.625 Y93.49 E.04595
G1 X116.466 Y93.682 E.02705
G1 X117.519 Y94.102 E.03555
G1 X118.504 Y94.715 E.03638
G1 X119.366 Y95.495 E.03645
M73 P2 R25
G1 X120.116 Y96.484 E.03892
G1 X120.669 Y97.613 E.03942
M73 Q2 S25
G1 X120.993 Y98.819 E.03915
G1 X121.08 Y100.06 E.03901
G1 X120.944 Y101.216 E.0365
G1 X120.604 Y102.327 E.03643
G1 X120.072 Y103.359 E.0364
G1 X119.365 Y104.279 E.03638
G1 X118.515 Y105.05 E.03598
G1 X117.676 Y105.589 E.03127
G1 X116.757 Y105.996 E.03151
G1 X115.57 Y106.291 E.03835
G1 X114.367 Y106.359 E.03778
G1 X113.172 Y106.203 E.03779
G1 X112.016 Y105.823 E.03815
G1 X110.958 Y105.239 E.03789
G1 X110.005 Y104.446 E.03887
G1 X109.271 Y103.561 E.03605
G1 X108.77 Y102.698 E.03129
G1 X108.406 Y101.764 E.03143
G1 X108.172 Y100.642 E.03594
G1 X108.141 Y99.48 E.03645
G1 X108.338 Y98.254 E.03893
G1 X108.768 Y97.08 E.0392
G1 X109.296 Y96.209 E.03194
M204 S1000
G1 X109.296 Y96.209 F10800
G1 X109.616 Y96.402
M204 S800
G1 F1200
G1 X109.708 Y96.251 E.00554
G1 X110.499 Y95.376 E.03698
G1 X111.372 Y94.714 E.03435
G1 X112.346 Y94.221 E.03423
G1 X113.373 Y93.912 E.03363
G1 X114.198 Y93.8 E.0261
G1 X114.833 Y93.805 E.01991
G1 X115.555 Y93.861 E.02271
G1 X116.367 Y94.046 E.02611
G1 X117.363 Y94.446 E.03365
G1 X118.289 Y95.025 E.03424
G1 X119.099 Y95.762 E.03434
G1 X119.804 Y96.697 E.03672
G1 X120.31 Y97.729 E.03604
G1 X120.618 Y98.865 E.0369
G1 X120.703 Y100.035 E.03678
G1 X120.578 Y101.124 E.03437
G1 X120.261 Y102.17 E.03427
G1 X119.762 Y103.144 E.03431
G1 X119.098 Y104.012 E.03427
G1 X118.298 Y104.742 E.03396
G1 X117.485 Y105.264 E.03029
G1 X116.62 Y105.644 E.02962
G1 X115.497 Y105.92 E.03626
G1 X114.365 Y105.981 E.03554
G1 X113.24 Y105.831 E.03559
G1 X112.152 Y105.471 E.03593
G1 X111.157 Y104.918 E.03569
G1 X110.284 Y104.192 E.0356
G1 X109.589 Y103.358 E.03404
G1 X109.104 Y102.522 E.0303
G1 X108.763 Y101.643 E.02956
G1 X108.545 Y100.583 E.03393
G1 X108.518 Y99.489 E.03431
G1 X108.707 Y98.332 E.03676
G1 X109.1 Y97.259 E.03583
G1 X109.585 Y96.454 E.02947
M204 S1000
G1 X109.585 Y96.454 F10800
G1 X109.907 Y96.649
M204 S800
G1 F1200
G1 X110.021 Y96.462 E.00687
G1 X110.742 Y95.665 E.0337
G1 X111.558 Y95.042 E.03219
G1 X112.472 Y94.576 E.03217
G1 X113.439 Y94.284 E.03167
G1 X114.235 Y94.176 E.02519
G1 X115.485 Y94.232 E.03923
G1 X116.269 Y94.411 E.02521
G1 X117.206 Y94.789 E.03168
G1 X118.073 Y95.335 E.03213
G1 X118.831 Y96.028 E.0322
G1 X119.491 Y96.908 E.03449
G1 X119.963 Y97.878 E.03382
G1 X120.244 Y98.911 E.03357
G1 X120.326 Y100.011 E.03459
G1 X120.212 Y101.032 E.03221
G1 X119.917 Y102.015 E.03218
G1 X119.452 Y102.929 E.03215
G1 X118.831 Y103.745 E.03215
G1 X118.08 Y104.434 E.03196
G1 X117.319 Y104.925 E.0284
G1 X116.483 Y105.292 E.02863
G1 X115.458 Y105.545 E.0331
G1 X114.396 Y105.605 E.03335
G1 X113.34 Y105.467 E.03339
G1 X112.318 Y105.132 E.03372
G1 X111.383 Y104.616 E.03348
G1 X110.561 Y103.936 E.03345
G1 X109.906 Y103.154 E.03198
G1 X109.45 Y102.372 E.02838
G1 X109.121 Y101.522 E.02858
G1 X108.918 Y100.525 E.0319
G1 X108.896 Y99.499 E.03218
G1 X109.076 Y98.412 E.03455
G1 X109.447 Y97.407 E.03359
G1 X109.876 Y96.7 E.02593
M204 S1000
G1 X109.876 Y96.7 F10800
G1 X110.196 Y96.894
M204 S800
G1 F1200
G1 X110.313 Y96.701 E.00708
G1 X110.985 Y95.953 E.03153
G1 X111.746 Y95.37 E.03006
G1 X112.598 Y94.932 E.03004
G1 X113.505 Y94.655 E.02974
G1 X114.812 Y94.559 E.04109
G1 X115.415 Y94.603 E.01896
G1 X116.17 Y94.775 E.02428
G1 X117.048 Y95.132 E.02972
G1 X117.857 Y95.644 E.03002
G1 X118.563 Y96.294 E.03009
G1 X119.161 Y97.091 E.03124
G1 X119.605 Y97.995 E.03158
G1 X119.869 Y98.959 E.03134
G1 X119.949 Y99.988 E.03236
G1 X119.845 Y100.942 E.03009
G1 X119.573 Y101.86 E.03002
G1 X119.14 Y102.716 E.03008
G1 X118.562 Y103.48 E.03004
G1 X117.861 Y104.126 E.02989
G1 X117.127 Y104.599 E.02738
G1 X116.348 Y104.94 E.02666
G1 X115.386 Y105.175 E.03105
G1 X114.426 Y105.229 E.03015
G1 X113.439 Y105.103 E.0312
G1 X112.483 Y104.793 E.03151
G1 X111.609 Y104.313 E.03126
G1 X110.838 Y103.68 E.03128
G1 X110.224 Y102.949 E.02993
G1 X109.784 Y102.195 E.02737
G1 X109.478 Y101.402 E.02665
G1 X109.291 Y100.467 E.0299
G1 X109.273 Y99.509 E.03004
G1 X109.444 Y98.493 E.0323
G1 X109.794 Y97.556 E.03136
G1 X110.165 Y96.945 E.02241
M204 S1000
G1 X110.165 Y96.945 F10800
G1 X110.486 Y97.138
M204 S800
G1 F1200
G1 X110.606 Y96.938 E.00731
G1 X111.23 Y96.241 E.02933
G1 X111.935 Y95.697 E.02792
G1 X112.726 Y95.287 E.02793
G1 X113.571 Y95.027 E.02772
G1 X114.307 Y94.927 E.02329
G1 X115.346 Y94.973 E.03261
G1 X116.07 Y95.139 E.02329
G1 X116.889 Y95.474 E.02774
G1 X117.64 Y95.953 E.02793
G1 X118.294 Y96.558 E.02793
G1 X118.848 Y97.301 E.02906
G1 X119.258 Y98.144 E.02939
G1 X119.501 Y99.04 E.02911
G1 X119.573 Y99.966 E.02912
G1 X119.479 Y100.852 E.02794
G1 X119.228 Y101.707 E.02794
G1 X118.828 Y102.503 E.02793
G1 X118.293 Y103.215 E.02792
G1 X117.642 Y103.819 E.02784
G1 X116.962 Y104.26 E.02541
G1 X116.212 Y104.588 E.02567
G1 X115.315 Y104.804 E.02893
G1 X114.424 Y104.852 E.02798
G1 X113.506 Y104.732 E.02903
G1 X112.648 Y104.453 E.02829
G1 X111.833 Y104.01 E.02908
G1 X111.115 Y103.423 E.02908
G1 X110.54 Y102.744 E.0279
G1 X110.13 Y102.045 E.02541
G1 X109.836 Y101.282 E.02564
G1 X109.664 Y100.411 E.02784
G1 X109.65 Y99.521 E.02791
G1 X109.804 Y98.607 E.02906
G1 X110.127 Y97.735 E.02916
G1 X110.455 Y97.19 E.01994
M204 S1000
G1 X110.455 Y97.19 F10800
G1 X110.776 Y97.385
M204 S800
G1 F1200
G1 X110.919 Y97.149 E.00865
G1 X111.475 Y96.528 E.02613
