; generated by PrusaSlicer 2.8.0 on 2024-10-18 at 19:28:31 UTC


;
;
; 

; external perimeters extrusion width = 0.60mm
; perimeters extrusion width = 0.50mm
; infill extrusion width = 0.50mm
; solid infill extrusion width = 0.50mm
; top infill extrusion width = 0.45mm
; first layer extrusion width = 0.42mm

M73 P0 R6
M73 Q0 S6
M201 X1000 Y1000 Z200 E5000 ; sets maximum accelerations, mm/sec^2
M203 X200 Y200 Z12 E120 ; sets maximum feedrates, mm / sec
M204 S1250 T1250 ; sets acceleration (S) and retract acceleration (R), mm/sec^2
M205 X8.00 Y8.00 Z0.40 E4.50 ; sets the jerk limits, mm/sec
M205 S0 T0 ; sets the minimum extruding and travel feed rate, mm/sec

; printing object miah-waterfall.stl id:0 copy 0
; stop printing object miah-waterfall.stl id:0 copy 0

;TYPE:Custom
M862.3 P "MK3S" ; printer model check
M862.1 P0.4 ; nozzle diameter check
M115 U3.14.0 ; tell printer latest fw version
G90 ; use absolute coordinates
M83 ; extruder relative mode
M104 S215 ; set extruder temp
M140 S60 ; set bed temp
M190 S60 ; wait for bed temp
M109 S215 ; wait for extruder temp
G28 W ; home all without mesh bed level
G80 X113.611 Y93.5984 W22.7924 H22.8036 ; mesh bed levelling

G1 Z0.2 F720
G1 Y-3 F1000 ; go outside print area
G92 E0
G1 X60 E9 F1000 ; intro line
G1 X100 E12.5 F1000 ; intro line

G92 E0
M221 S95

; Don't change E values below. Excessive value can damage the printer.

M907 E538 ; set extruder motor current
G21 ; set units to millimeters
G90 ; use absolute coordinates
M83 ; use relative distances for extrusion

M900 K0.05 ; Filament gcode LA 1.5
M900 K30 ; Filament gcode LA 1.0




M107
;LAYER_CHANGE
;Z:0.2
;HEIGHT:0.2
G1 E-.8 F2100
M73 P1 R6
M73 Q1 S6
G1 Z.6 F720
G1 X116.062 Y98.223 F10800
G1 Z.2 F720
G1 E.8 F2100
M204 S800
;TYPE:Skirt/Brim
;WIDTH:0.42
G1 F1200
G1 X117.415 Y96.736 E.06304
G1 X119.013 Y95.514 E.06308
G1 X120.803 Y94.598 E.06305
G1 X122.728 Y94.015 E.06306
G1 X124.107 Y93.823 E.04365
M73 Q2 S6
G1 X124.982 Y93.787 E.02746
G1 X126.732 Y93.917 E.05502
G1 X128.026 Y94.202 E.04154
G1 X129.905 Y94.916 E.06302
M73 P2 R6
G1 X130.714 Y95.351 E.0288
G1 X131.813 Y96.089 E.04151
G1 X133.136 Y97.282 E.05586
G1 X133.74 Y97.974 E.0288
G1 X134.51 Y99.051 E.04151
G1 X135.419 Y100.845 E.06306
G1 X135.994 Y102.772 E.06305
G1 X136.106 Y103.451 E.02158
G1 X136.215 Y105.229 E.05585
G1 X135.994 Y107.228 E.06306
G1 X135.419 Y109.155 E.06305
G1 X134.51 Y110.949 E.06306
G1 X133.74 Y112.026 E.04151
G1 X133.136 Y112.717 E.02878
G1 X132.171 Y113.625 E.04155
G1 X130.714 Y114.649 E.05584
G1 X128.899 Y115.514 E.06304
G1 X128.026 Y115.798 E.02878
G1 X126.732 Y116.082 E.04154
G1 X124.726 Y116.214 E.06303
G1 X124.039 Y116.172 E.02158
G1 X122.281 Y115.883 E.05586
G1 X120.382 Y115.222 E.06305
G1 X118.631 Y114.233 E.06305
G1 X117.589 Y113.416 E.04152
G1 X116.925 Y112.781 E.02881
G1 X115.665 Y111.214 E.06305
G1 X114.995 Y110.072 E.04151
G1 X114.514 Y108.935 E.03871
G1 X114.128 Y107.763 E.03869
G1 X113.882 Y106.461 E.04155
G1 X113.799 Y104.453 E.06301
G1 X113.882 Y103.538 E.02881
G1 X114.128 Y102.237 E.04151
G1 X114.796 Y100.34 E.06306
G1 X115.104 Y99.725 E.02157
G1 X116.029 Y98.273 E.05398
M204 S1000
G1 X116.029 Y98.273 F10800
G1 X116.353 Y98.467
M204 S800
G1 F1200
G1 X116.367 Y98.444 E.00084
G1 X117.676 Y97.008 E.06092
G1 X119.221 Y95.829 E.06094
G1 X120.951 Y94.944 E.06093
G1 X122.812 Y94.383 E.06094
G1 X124.965 Y94.164 E.06785
G1 X126.682 Y94.291 E.05398
G1 X127.942 Y94.57 E.04046
G1 X129.757 Y95.262 E.0609
G1 X131.578 Y96.384 E.06706
G1 X132.875 Y97.555 E.05479
M73 Q3 S6
G1 X134.186 Y99.245 E.06706
G1 X135.066 Y100.977 E.06091
G1 X135.623 Y102.839 E.06094
M73 P3 R6
G1 X135.838 Y105.229 E.07524
G1 X135.623 Y107.16 E.06092
G1 X135.066 Y109.022 E.06094
G1 X134.186 Y110.755 E.06094
G1 X132.875 Y112.445 E.06706
G1 X131.936 Y113.33 E.04046
G1 X130.506 Y114.334 E.05478
G1 X128.751 Y115.167 E.06091
G1 X126.682 Y115.709 E.06706
G1 X124.742 Y115.837 E.06096
G1 X122.365 Y115.515 E.07521
G1 X120.53 Y114.875 E.06093
G1 X118.838 Y113.919 E.06093
G1 X117.209 Y112.533 E.06706
G1 X115.989 Y111.021 E.06092
G1 X115.335 Y109.909 E.04045
G1 X114.867 Y108.803 E.03765
G1 X114.492 Y107.662 E.03766
G1 X114.253 Y106.394 E.04046
G1 X114.176 Y104.453 E.06091
G1 X114.492 Y102.337 E.06708
G1 X115.136 Y100.504 E.06092
G1 X116.322 Y98.518 E.07253
M204 S1000
;WIPE_START
G1 F8640
G1 X116.353 Y98.467 E-.01378
G1 X116.367 Y98.444 E-.00622
G1 X117.676 Y97.008 E-.44866
G1 X118.816 Y96.137 E-.33134
;WIPE_END
G1 Z.6 F720
G1 X118.369 Y99.905 F10800
G1 Z.2 F720
G1 E.8 F2100
M204 S800
G1 F1200
G1 X119.454 Y98.741 E.04989
G1 X120.663 Y97.85 E.04709
G1 X122.007 Y97.191 E.04693
G1 X123.423 Y96.787 E.04617
G1 X124.637 Y96.647 E.03832
G1 X125.858 Y96.681 E.0383
G1 X127.412 Y96.993 E.0497
G1 X128.852 Y97.578 E.04873
G1 X130.158 Y98.418 E.04869
G1 X131.309 Y99.512 E.04979
G1 X132.233 Y100.805 E.04983
G1 X132.887 Y102.223 E.04896
G1 X133.265 Y103.731 E.04875
G1 X133.356 Y105.315 E.04975
M73 Q4 S6
G1 X133.166 Y106.802 E.047
G1 X132.726 Y108.201 E.04598
G1 X132.167 Y109.309 E.03891
M73 P4 R6
G1 X131.467 Y110.302 E.03809
G1 X130.437 Y111.354 E.04616
G1 X129.112 Y112.281 E.0507
G1 X127.609 Y112.945 E.05152
G1 X126.006 Y113.301 E.05149
G1 X124.371 Y113.34 E.05128
G1 X123.165 Y113.158 E.03824
G1 X121.975 Y112.797 E.03899
G1 X120.658 Y112.147 E.04605
G1 X119.444 Y111.249 E.04735
G1 X118.413 Y110.152 E.0472
G1 X117.56 Y108.817 E.04967
G1 X116.982 Y107.374 E.04874
G1 X116.679 Y105.826 E.04946
G1 X116.67 Y104.271 E.04876
G1 X116.959 Y102.706 E.0499
G1 X117.524 Y101.253 E.04888
G1 X118.337 Y99.956 E.048
M204 S1000
G1 X118.337 Y99.956 F10800
G1 X118.654 Y100.154
M204 S800
G1 F1200
G1 X118.658 Y100.148 E.00023
G1 X119.693 Y99.034 E.04768
G1 X120.845 Y98.181 E.04494
G1 X122.128 Y97.549 E.04484
G1 X123.483 Y97.16 E.0442
G1 X124.64 Y97.024 E.03653
G1 X125.831 Y97.057 E.03736
G1 X127.319 Y97.359 E.04761
G1 X128.693 Y97.92 E.04653
G1 X129.938 Y98.725 E.04649
G1 X131.036 Y99.773 E.04759
G1 X131.899 Y100.979 E.0465
G1 X132.526 Y102.332 E.04676
G1 X132.89 Y103.772 E.04657
G1 X132.98 Y105.285 E.04752
G1 X132.801 Y106.706 E.04491
G1 X132.382 Y108.045 E.04399
G1 X131.85 Y109.103 E.03713
G1 X131.168 Y110.072 E.03715
G1 X130.181 Y111.077 E.04417
G1 X128.911 Y111.961 E.04852
G1 X127.474 Y112.592 E.04921
G1 X125.978 Y112.925 E.04805
G1 X124.41 Y112.964 E.04918
G1 X123.235 Y112.788 E.03725
G1 X122.101 Y112.441 E.03718
G1 X120.841 Y111.817 E.04409
G1 X119.683 Y110.957 E.04523
G1 X118.7 Y109.907 E.0451
G1 X117.888 Y108.629 E.04747
G1 X117.339 Y107.252 E.04648
G1 X117.052 Y105.772 E.04727
G1 X117.047 Y104.288 E.04653
G1 X117.326 Y102.793 E.04768
G1 X117.869 Y101.407 E.04667
M73 Q5 S6
G1 X118.622 Y100.205 E.04447
M204 S1000
G1 X118.622 Y100.205 F10800
M73 P5 R6
G1 X118.939 Y100.403
M204 S800
G1 F1200
G1 X118.947 Y100.391 E.00045
G1 X119.932 Y99.326 E.04548
G1 X121.028 Y98.511 E.04282
G1 X122.249 Y97.906 E.04273
G1 X123.542 Y97.532 E.0422
G1 X124.67 Y97.401 E.03561
G1 X125.804 Y97.434 E.03557
G1 X127.194 Y97.715 E.04446
G1 X128.504 Y98.247 E.04433
G1 X129.691 Y99.011 E.04426
G1 X130.741 Y100.007 E.04538
G1 X131.565 Y101.155 E.04431
G1 X132.165 Y102.443 E.04455
G1 X132.515 Y103.813 E.04434
G1 X132.604 Y105.256 E.04533
G1 X132.435 Y106.611 E.04281
G1 X132.038 Y107.89 E.04199
G1 X131.534 Y108.898 E.03534
G1 X130.869 Y109.842 E.03621
G1 X129.925 Y110.799 E.04215
G1 X128.712 Y111.641 E.0463
G1 X127.373 Y112.228 E.04584
G1 X125.949 Y112.548 E.04576
G1 X124.449 Y112.589 E.04705
G1 X123.331 Y112.423 E.03544
G1 X122.226 Y112.085 E.03623
G1 X121.025 Y111.487 E.04207
G1 X119.922 Y110.665 E.04313
G1 X118.988 Y109.663 E.04295
G1 X118.216 Y108.443 E.04527
G1 X117.696 Y107.13 E.04428
G1 X117.429 Y105.752 E.04401
G1 X117.421 Y104.338 E.04434
G1 X117.684 Y102.913 E.04543
G1 X118.198 Y101.592 E.04444
G1 X118.907 Y100.454 E.04204
M204 S1000
G1 X118.907 Y100.454 F10800
G1 X119.227 Y100.654
M204 S800
G1 F1200
G1 X119.257 Y100.606 E.00177
G1 X120.171 Y99.617 E.04222
G1 X121.211 Y98.841 E.04069
G1 X122.371 Y98.264 E.04062
G1 X123.602 Y97.905 E.0402
G1 X124.673 Y97.778 E.03382
G1 X125.776 Y97.81 E.0346
G1 X127.101 Y98.081 E.0424
G1 X128.345 Y98.589 E.04213
G1 X129.472 Y99.318 E.04208
G1 X130.445 Y100.242 E.04207
G1 X131.231 Y101.331 E.04211
G1 X131.805 Y102.554 E.04236
G1 X132.139 Y103.856 E.04215
G1 X132.227 Y105.228 E.04311
G1 X132.07 Y106.516 E.04068
G1 X131.694 Y107.736 E.04003
G1 X131.203 Y108.716 E.03437
G1 X130.57 Y109.612 E.0344
G1 X129.669 Y110.521 E.04013
G1 X128.513 Y111.32 E.04406
G1 X127.24 Y111.875 E.04354
G1 X125.885 Y112.176 E.04352
M73 Q6 S6
G1 X124.488 Y112.214 E.04382
G1 X123.401 Y112.052 E.03446
M73 P6 R6
G1 X122.352 Y111.729 E.03441
G1 X121.209 Y111.157 E.04008
G1 X120.162 Y110.374 E.04099
G1 X119.277 Y109.42 E.0408
G1 X118.544 Y108.257 E.0431
G1 X118.053 Y107.008 E.04208
G1 X117.803 Y105.698 E.04182
G1 X117.798 Y104.355 E.04211
G1 X118.051 Y103 E.04322
G1 X118.542 Y101.746 E.04222
G1 X119.195 Y100.705 E.03853
M204 S1000
G1 X119.512 Y100.903 F10800
M204 S800
G1 F1200
G1 X119.546 Y100.848 E.00203
G1 X120.412 Y99.908 E.04007
G1 X121.395 Y99.17 E.03854
G1 X122.494 Y98.621 E.03852
G1 X123.662 Y98.277 E.03818
G1 X124.704 Y98.154 E.0329
G1 X125.748 Y98.186 E.03275
G1 X127.007 Y98.447 E.04031
G1 X128.185 Y98.931 E.03993
G1 X129.251 Y99.624 E.03987
G1 X130.172 Y100.503 E.03992
G1 X130.914 Y101.537 E.0399
G1 X131.455 Y102.697 E.04013
G1 X131.77 Y103.931 E.03993
G1 X131.851 Y105.201 E.0399
G1 X131.705 Y106.422 E.03856
G1 X131.349 Y107.582 E.03805
G1 X130.887 Y108.51 E.0325
G1 X130.271 Y109.381 E.03345
G1 X129.414 Y110.243 E.03811
G1 X128.344 Y110.982 E.04077
G1 X127.139 Y111.511 E.04126
G1 X125.855 Y111.8 E.04127
G1 X124.526 Y111.838 E.04169
G1 X123.498 Y111.687 E.03258
G1 X122.478 Y111.373 E.03346
G1 X121.394 Y110.828 E.03804
G1 X120.402 Y110.083 E.0389
G1 X119.566 Y109.177 E.03865
G1 X118.888 Y108.102 E.03985
G1 X118.42 Y106.919 E.03989
G1 X118.18 Y105.678 E.03963
G1 X118.172 Y104.406 E.03988
G1 X118.409 Y103.119 E.04103
G1 X118.872 Y101.93 E.04001
G1 X119.481 Y100.954 E.03607
M204 S1000
G1 X119.481 Y100.954 F10800
G1 X119.799 Y101.151
M204 S800
G1 F1200
G1 X119.837 Y101.09 E.00225
G1 X120.653 Y100.199 E.03788
G1 X121.581 Y99.499 E.03645
G1 X122.618 Y98.977 E.0364
G1 X123.724 Y98.65 E.03616
G1 X124.706 Y98.531 E.03102
G1 X125.72 Y98.563 E.03181
G1 X126.881 Y98.802 E.03717
G1 X127.995 Y99.258 E.03774
G1 X129.005 Y99.91 E.03769
G1 X129.877 Y100.738 E.0377
G1 X130.581 Y101.713 E.03771
G1 X131.095 Y102.809 E.03796
G1 X131.395 Y103.974 E.03772
G1 X131.474 Y105.175 E.03774
G1 X131.339 Y106.329 E.03643
G1 X131.005 Y107.428 E.03601
M73 Q7 S6
G1 X130.556 Y108.329 E.03156
M73 P7 R6
G1 X129.973 Y109.15 E.03157
G1 X129.16 Y109.964 E.03607
G1 X128.146 Y110.661 E.03858
G1 X127.005 Y111.158 E.03902
G1 X125.791 Y111.428 E.03899
G1 X124.565 Y111.463 E.03846
G1 X123.567 Y111.316 E.03163
G1 X122.605 Y111.018 E.03158
G1 X121.579 Y110.5 E.03604
G1 X120.644 Y109.793 E.03675
G1 X119.855 Y108.935 E.03655
G1 X119.217 Y107.917 E.03767
G1 X118.778 Y106.798 E.03769
G1 X118.553 Y105.625 E.03745
G1 X118.549 Y104.422 E.03772
G1 X118.767 Y103.239 E.03772
G1 X119.202 Y102.113 E.03785
G1 X119.767 Y101.202 E.03361
M204 S1000
G1 X120.087 Y101.401 F10800
M204 S800
G1 F1200
G1 X120.147 Y101.304 E.00358
G1 X120.894 Y100.489 E.03466
G1 X121.766 Y99.828 E.03431
G1 X122.742 Y99.333 E.03431
G1 X123.785 Y99.022 E.03413
G1 X124.737 Y98.908 E.03006
G1 X125.691 Y98.939 E.02993
G1 X126.786 Y99.168 E.03508
G1 X127.835 Y99.599 E.03556
G1 X128.784 Y100.216 E.03549
G1 X129.603 Y100.998 E.0355
G1 X130.264 Y101.919 E.03554
G1 X130.734 Y102.921 E.0347
G1 X131.02 Y104.018 E.03555
G1 X131.098 Y105.149 E.03555
G1 X130.973 Y106.237 E.03434
G1 X130.66 Y107.274 E.03396
G1 X130.225 Y108.147 E.03058
G1 X129.675 Y108.918 E.02969
G1 X128.907 Y109.684 E.03401
G1 X127.948 Y110.339 E.03641
G1 X126.905 Y110.794 E.03568
G1 X125.762 Y111.052 E.03674
G1 X124.602 Y111.087 E.03639
G1 X123.665 Y110.952 E.02968
G1 X122.732 Y110.663 E.03062
G1 X121.765 Y110.171 E.03402
G1 X120.886 Y109.503 E.03462
G1 X120.146 Y108.694 E.03438
G1 X119.547 Y107.733 E.03551
G1 X119.135 Y106.678 E.03551
G1 X118.927 Y105.573 E.03525
G1 X118.926 Y104.44 E.03552
G1 X119.135 Y103.326 E.03554
G1 X119.547 Y102.267 E.03563
G1 X120.055 Y101.452 E.03011
M204 S1000
G1 X120.055 Y101.452 F10800
G1 X120.373 Y101.65
M204 S800
G1 F1200
G1 X120.438 Y101.545 E.00387
G1 X121.137 Y100.778 E.03254
G1 X121.953 Y100.156 E.03217
G1 X122.867 Y99.689 E.03218
G1 X123.847 Y99.394 E.03209
G1 X124.739 Y99.285 E.02818
G1 X125.662 Y99.315 E.02896
G1 X126.691 Y99.533 E.03298
G1 X127.674 Y99.941 E.03337
G1 X128.537 Y100.502 E.03227
G1 X129.308 Y101.234 E.03333
G1 X129.931 Y102.096 E.03335
G1 X130.374 Y103.034 E.03253
G1 X130.645 Y104.063 E.03336
G1 X130.721 Y105.125 E.03338
G1 X130.607 Y106.145 E.03218
G1 X130.315 Y107.121 E.03194
G1 X129.909 Y107.941 E.02869
M73 Q8 S6
G1 X129.378 Y108.685 E.02866
M73 P8 R6
G1 X128.654 Y109.404 E.03199
G1 X127.752 Y110.017 E.03419
G1 X126.772 Y110.441 E.03348
G1 X125.731 Y110.675 E.03345
G1 X124.639 Y110.711 E.03426
G1 X123.734 Y110.581 E.02867
G1 X122.861 Y110.308 E.02868
G1 X121.952 Y109.844 E.032
G1 X121.128 Y109.214 E.03252
G1 X120.437 Y108.453 E.03223
G1 X119.877 Y107.549 E.03334
G1 X119.503 Y106.59 E.03227
G1 X119.304 Y105.553 E.03311
G1 X119.3 Y104.49 E.03333
G1 X119.493 Y103.445 E.03332
G1 X119.877 Y102.45 E.03344
G1 X120.342 Y101.701 E.02764
M204 S1000
G1 X120.342 Y101.701 F10800
G1 X120.66 Y101.897
M204 S800
G1 F1200
G1 X120.729 Y101.785 E.00412
G1 X121.38 Y101.066 E.03041
G1 X122.141 Y100.483 E.03006
G1 X122.994 Y100.045 E.03007
G1 X123.91 Y99.767 E.03001
G1 X124.77 Y99.661 E.02717
G1 X125.631 Y99.692 E.02701
G1 X126.594 Y99.898 E.03088
G1 X127.512 Y100.282 E.0312
G1 X128.316 Y100.807 E.03011
G1 X129.035 Y101.494 E.03118
G1 X129.614 Y102.301 E.03114
G1 X130.025 Y103.179 E.0304
G1 X130.27 Y104.109 E.03015
G1 X130.344 Y105.102 E.03122
G1 X130.24 Y106.055 E.03006
G1 X129.969 Y106.97 E.02992
G1 X129.593 Y107.734 E.0267
G1 X129.08 Y108.453 E.02769
G1 X128.402 Y109.123 E.02989
G1 X127.556 Y109.695 E.03202
G1 X126.64 Y110.087 E.03124
G1 X125.667 Y110.303 E.03125
G1 X124.676 Y110.336 E.03109
G1 X123.831 Y110.216 E.02676
G1 X122.989 Y109.953 E.02766
G1 X122.141 Y109.516 E.02991
G1 X121.372 Y108.926 E.03039
G1 X120.728 Y108.213 E.03012
G1 X120.207 Y107.367 E.03115
G1 X119.861 Y106.47 E.03014
G1 X119.678 Y105.501 E.03092
G1 X119.677 Y104.507 E.03117
G1 X119.851 Y103.563 E.0301
G1 X120.207 Y102.633 E.03122
G1 X120.629 Y101.948 E.02523
M73 P8 R5
M204 S1000
G1 X120.629 Y101.948 F10800
G1 X120.948 Y102.143
M204 S800
G1 F1200
G1 X121.022 Y102.024 E.00439
G1 X121.624 Y101.354 E.02824
G1 X122.33 Y100.81 E.02795
G1 X123.121 Y100.4 E.02793
G1 X123.973 Y100.139 E.02794
G1 X124.772 Y100.038 E.02525
G1 X125.601 Y100.068 E.02601
G1 X126.496 Y100.262 E.02871
G1 X127.349 Y100.622 E.02903
G1 X128.094 Y101.112 E.02796
G1 X128.761 Y101.753 E.02901
G1 X129.281 Y102.478 E.02797
G1 X129.666 Y103.293 E.02826
G1 X129.896 Y104.156 E.028
G1 X129.968 Y105.08 E.02906
G1 X129.873 Y105.966 E.02794
G1 X129.624 Y106.818 E.02783
G1 X129.262 Y107.554 E.02572
G1 X128.784 Y108.22 E.0257
G1 X128.15 Y108.842 E.02785
G1 X127.39 Y109.356 E.02877
G1 X126.539 Y109.724 E.02907
G1 X125.635 Y109.927 E.02905
G1 X124.712 Y109.96 E.02896
G1 X123.9 Y109.845 E.02571
G1 X123.118 Y109.598 E.02571
G1 X122.33 Y109.19 E.02782
G1 X121.617 Y108.638 E.02827
G1 X121.021 Y107.975 E.02795
G1 X120.538 Y107.185 E.02903
M73 Q9 S6
G1 X120.219 Y106.352 E.02797
M73 P9 R5
G1 X120.052 Y105.45 E.02876
G1 X120.051 Y104.558 E.02797
G1 X120.21 Y103.68 E.02798
G1 X120.538 Y102.814 E.02904
G1 X120.917 Y102.195 E.02276
M204 S1000
G1 X120.917 Y102.195 F10800
G1 X121.236 Y102.39
M204 S800
G1 F1200
G1 X121.314 Y102.262 E.0047
G1 X121.87 Y101.641 E.02613
G1 X122.52 Y101.136 E.02581
G1 X123.25 Y100.755 E.02582
G1 X124.037 Y100.511 E.02583
G1 X124.804 Y100.415 E.02424
G1 X125.569 Y100.444 E.024
G1 X126.398 Y100.627 E.02662
G1 X127.158 Y100.947 E.02586
G1 X127.846 Y101.398 E.02579
G1 X128.466 Y101.989 E.02686
G1 X128.948 Y102.656 E.0258
G1 X129.306 Y103.408 E.02611
