; generated by PrusaSlicer 2.8.0 on 2024-11-03 at 22:42:37 UTC


;
;
; 

; external perimeters extrusion width = 0.45mm
; perimeters extrusion width = 0.45mm
; infill extrusion width = 0.45mm
; solid infill extrusion width = 0.45mm
; top infill extrusion width = 0.40mm
; first layer extrusion width = 0.42mm

; external perimeters extrusion width = 0.45mm
; perimeters extrusion width = 0.45mm
; infill extrusion width = 0.45mm
; solid infill extrusion width = 0.45mm
; top infill extrusion width = 0.40mm
; first layer extrusion width = 0.42mm

M73 P0 R21
M73 Q0 S22
M201 X1000 Y1000 Z200 E5000 ; sets maximum accelerations, mm/sec^2
M203 X200 Y200 Z12 E120 ; sets maximum feedrates, mm / sec
M204 S1250 T1250 ; sets acceleration (S) and retract acceleration (R), mm/sec^2
M205 X8.00 Y8.00 Z0.40 E4.50 ; sets the jerk limits, mm/sec
M205 S0 T0 ; sets the minimum extruding and travel feed rate, mm/sec

; printing object miah-waterfall-taper-out.stl id:1 copy 0
; stop printing object miah-waterfall-taper-out.stl id:1 copy 0
; printing object miah-waterfall-taper-in.stl id:2 copy 0
; stop printing object miah-waterfall-taper-in.stl id:2 copy 0

;TYPE:Custom
M862.3 P "MK3S" ; printer model check
M862.1 P0.4 ; nozzle diameter check
M115 U3.14.0 ; tell printer latest fw version
G90 ; use absolute coordinates
M83 ; extruder relative mode
M104 S215 ; set extruder temp
M140 S60 ; set bed temp
M190 S60 ; wait for bed temp
M109 S215 ; wait for extruder temp
G28 W ; home all without mesh bed level
G80 X102.874 Y88.2678 W43.7181 H23.2252 ; mesh bed levelling

G1 Z0.2 F720
G1 Y-3 F1000 ; go outside print area
G92 E0
G1 X60 E9 F1000 ; intro line
G1 X100 E12.5 F1000 ; intro line
M73 Q0 S21

G92 E0
M221 S95

; Don't change E values below. Excessive value can damage the printer.

M907 E538 ; set extruder motor current
G21 ; set units to millimeters
G90 ; use absolute coordinates
M83 ; use relative distances for extrusion

M900 K0.05 ; Filament gcode LA 1.5
M900 K30 ; Filament gcode LA 1.0




M107
;LAYER_CHANGE
;Z:0.2
;HEIGHT:0.2
G1 E-.8 F2100
G1 Z.6 F720
G1 X105.877 Y92.364 F10800
G1 Z.2 F720
G1 E.8 F2100
M204 S800
;TYPE:Skirt/Brim
;WIDTH:0.42
G1 F1200
G1 X106.805 Y91.421 E.04148
G1 X107.489 Y90.848 E.02798
G1 X108.963 Y89.875 E.05538
G1 X110.78 Y89.07 E.06231
G1 X112.707 Y88.593 E.06224
G1 X114.701 Y88.456 E.06267
G1 X135.385 Y88.482 E.64853
G1 X136.732 Y88.606 E.04241
G1 X138.452 Y89.013 E.05542
G1 X139.305 Y89.322 E.02845
G1 X140.503 Y89.891 E.04158
G1 X142.155 Y91.001 E.0624
G1 X143.876 Y92.722 E.07631
G1 X144.986 Y94.374 E.0624
G1 X145.553 Y95.568 E.04144
G1 X145.859 Y96.407 E.028
G1 X146.298 Y98.348 E.0624
G1 X146.404 Y99.666 E.04146
G1 X146.298 Y101.43 E.05541
G1 X146.143 Y102.309 E.02799
G1 X145.791 Y103.584 E.04147
G1 X144.986 Y105.404 E.0624
G1 X144.012 Y106.879 E.05542
G1 X143.439 Y107.562 E.02795
G1 X142.497 Y108.491 E.04148
G1 X141.078 Y109.543 E.05539
G1 X140.305 Y109.99 E.028
G1 X139.102 Y110.54 E.04147
G1 X137.408 Y111.044 E.05542
G1 X136.529 Y111.199 E.02799
G1 X135.211 Y111.304 E.04146
G1 X114.032 Y111.278 E.66405
G1 X112.277 Y111.076 E.05539
G1 X110.997 Y110.743 E.04147
G1 X110.158 Y110.437 E.028
G1 X108.963 Y109.87 E.04147
G1 X107.311 Y108.76 E.0624
G1 X105.877 Y107.38 E.0624
G1 X104.703 Y105.773 E.0624
G1 X103.827 Y103.986 E.0624
G1 X103.276 Y102.077 E.0623
G1 X103.063 Y100.098 E.06241
G1 X103.198 Y98.109 E.06251
G1 X103.608 Y96.39 E.05541
G1 X104.377 Y94.556 E.06235
G1 X104.824 Y93.783 E.028
G1 X105.841 Y92.412 E.05352
M204 S1000
G1 X105.841 Y92.412 F10800
G1 X106.143 Y92.636
M204 S800
G1 F1200
G1 X106.166 Y92.606 E.00119
G1 X107.705 Y91.157 E.06628
G1 X109.152 Y90.201 E.05438
M73 Q1 S21
G1 X110.909 Y89.424 E.06024
M73 P1 R21
G1 X112.772 Y88.964 E.06017
G1 X114.701 Y88.833 E.06062
G1 X135.354 Y88.858 E.64756
G1 X136.667 Y88.977 E.04134
G1 X138.356 Y89.377 E.05442
G1 X140.315 Y90.218 E.06684
G1 X141.913 Y91.29 E.06033
G1 X143.587 Y92.964 E.07423
G1 X144.659 Y94.562 E.06033
G1 X145.495 Y96.505 E.06632
G1 X145.923 Y98.381 E.06033
G1 X146.027 Y99.666 E.04042
G1 X145.923 Y101.397 E.05437
G1 X145.437 Y103.455 E.0663
G1 X144.659 Y105.215 E.06033
G1 X143.703 Y106.662 E.05438
G1 X143.172 Y107.296 E.02593
G1 X142.254 Y108.202 E.04044
G1 X140.861 Y109.235 E.05438
G1 X140.145 Y109.648 E.02592
G1 X138.554 Y110.338 E.05437
G1 X136.496 Y110.823 E.06629
G1 X135.211 Y110.927 E.04042
G1 X114.065 Y110.902 E.66302
G1 X112.342 Y110.704 E.05438
G1 X111.094 Y110.378 E.04044
G1 X109.152 Y109.543 E.06628
G1 X107.554 Y108.471 E.06033
G1 X106.165 Y107.138 E.06036
G1 X105.03 Y105.584 E.06034
G1 X104.182 Y103.857 E.06032
G1 X103.647 Y102.012 E.06023
G1 X103.44 Y100.098 E.06036
G1 X103.569 Y98.174 E.06046
G1 X103.972 Y96.488 E.05435
G1 X104.719 Y94.715 E.06032
G1 X105.133 Y93.999 E.02593
G1 X106.108 Y92.684 E.05133
M204 S1000
;WIPE_START
G1 F8640
G1 X106.143 Y92.636 E-.01372
G1 X106.166 Y92.606 E-.00873
G1 X107.705 Y91.157 E-.48808
G1 X108.751 Y90.466 E-.28947
;WIPE_END
G1 Z.6 F720
G1 X126.606 Y98.135 F10800
G1 Z.2 F720
G1 E.8 F2100
M204 S800
G1 F1200
G1 X126.946 Y96.949 E.03868
G1 X127.441 Y95.842 E.03802
G1 X128.238 Y94.62 E.04574
G1 X129.256 Y93.527 E.04683
G1 X130.562 Y92.559 E.05097
G1 X132.041 Y91.849 E.05144
G1 X133.624 Y91.435 E.0513
G1 X135.256 Y91.329 E.05128
G1 X136.462 Y91.453 E.03801
G1 X137.663 Y91.754 E.03882
G1 X139.005 Y92.326 E.04574
G1 X140.254 Y93.136 E.04668
G1 X141.35 Y94.157 E.04697
G1 X142.336 Y95.492 E.05204
G1 X143.039 Y96.973 E.0514
G1 X143.447 Y98.561 E.05141
G1 X143.546 Y100.19 E.05117
G1 X143.363 Y101.674 E.04688
G1 X142.939 Y103.071 E.04577
G1 X142.398 Y104.181 E.03872
G1 X141.718 Y105.185 E.03802
G1 X140.717 Y106.254 E.04592
G1 X139.385 Y107.237 E.05191
G1 X137.904 Y107.94 E.0514
G1 X136.316 Y108.348 E.05141
G1 X134.687 Y108.447 E.05117
G1 X133.203 Y108.264 E.04688
G1 X131.806 Y107.839 E.04578
G1 X130.696 Y107.299 E.0387
G1 X129.692 Y106.619 E.03802
G1 X128.623 Y105.618 E.04592
G1 X127.64 Y104.286 E.05191
G1 X126.937 Y102.805 E.0514
G1 X126.529 Y101.217 E.05141
G1 X126.43 Y99.591 E.05108
G1 X126.599 Y98.195 E.04409
M204 S1000
G1 X126.599 Y98.195 F10800
G1 X126.971 Y98.239
M204 S800
G1 F1200
G1 X126.973 Y98.224 E.00047
G1 X127.295 Y97.09 E.03696
G1 X127.779 Y96.009 E.03714
G1 X128.544 Y94.84 E.0438
G1 X129.52 Y93.797 E.04479
G1 X130.771 Y92.873 E.04876
G1 X132.154 Y92.209 E.0481
G1 X133.668 Y91.81 E.04909
G1 X135.233 Y91.706 E.04918
G1 X136.41 Y91.827 E.0371
G1 X137.557 Y92.116 E.03709
G1 X138.841 Y92.666 E.0438
G1 X140.034 Y93.443 E.04464
G1 X141.08 Y94.421 E.0449
G1 X142.003 Y95.671 E.04872
G1 X142.679 Y97.085 E.04914
G1 X143.072 Y98.603 E.04917
G1 X143.17 Y100.162 E.04898
G1 X142.998 Y101.58 E.04479
G1 X142.593 Y102.92 E.04389
G1 X142.078 Y103.981 E.03698
G1 X141.414 Y104.961 E.03712
G1 X140.454 Y105.983 E.04396
G1 X139.206 Y106.904 E.04863
G1 X137.791 Y107.58 E.04917
G1 X136.274 Y107.973 E.04913
G1 X134.715 Y108.071 E.04898
G1 X133.297 Y107.898 E.04479
G1 X131.957 Y107.494 E.04388
G1 X130.896 Y106.979 E.03698
G1 X129.916 Y106.315 E.03712
G1 X128.894 Y105.355 E.04396
G1 X127.973 Y104.107 E.04863
G1 X127.297 Y102.692 E.04917
G1 X126.904 Y101.175 E.04913
G1 X126.806 Y99.618 E.04892
G1 X126.964 Y98.299 E.04165
M204 S1000
G1 X126.964 Y98.299 F10800
G1 X127.336 Y98.343
M204 S800
G1 F1200
G1 X127.339 Y98.313 E.00095
G1 X127.654 Y97.207 E.03606
G1 X128.117 Y96.178 E.03538
G1 X128.85 Y95.061 E.04189
G1 X129.782 Y94.068 E.0427
G1 X130.98 Y93.187 E.04663
G1 X132.3 Y92.557 E.04586
G1 X133.746 Y92.18 E.04685
G1 X135.211 Y92.082 E.04604
G1 X136.331 Y92.196 E.0353
G1 X137.45 Y92.477 E.03617
G1 X138.677 Y93.006 E.04189
G1 X139.814 Y93.75 E.0426
G1 X140.809 Y94.683 E.04277
G1 X141.689 Y95.879 E.04656
G1 X142.331 Y97.231 E.04693
G1 X142.697 Y98.645 E.0458
G1 X142.793 Y100.135 E.04681
G1 X142.632 Y101.488 E.04272
G1 X142.247 Y102.769 E.04194
G1 X141.745 Y103.804 E.03607
G1 X141.111 Y104.737 E.03537
G1 X140.192 Y105.712 E.04201
G1 X138.998 Y106.59 E.04647
G1 X137.646 Y107.231 E.04691
G1 X136.232 Y107.598 E.0458
G1 X134.742 Y107.694 E.04681
G1 X133.389 Y107.532 E.04273
G1 X132.108 Y107.148 E.04193
M73 P2 R21
G1 X131.073 Y106.646 E.03607
M73 Q2 S21
G1 X130.14 Y106.012 E.03537
G1 X129.165 Y105.092 E.04203
G1 X128.287 Y103.898 E.04647
G1 X127.646 Y102.547 E.04689
G1 X127.279 Y101.133 E.0458
G1 X127.183 Y99.645 E.04675
G1 X127.329 Y98.402 E.03924
M204 S1000
G1 X127.329 Y98.402 F10800
G1 X127.701 Y98.445
M204 S800
G1 F1200
G1 X127.706 Y98.4 E.00142
G1 X128.004 Y97.348 E.03428
G1 X128.454 Y96.346 E.03444
G1 X129.156 Y95.283 E.03994
G1 X130.045 Y94.339 E.04066
G1 X131.188 Y93.502 E.04442
G1 X132.445 Y92.906 E.04362
G1 X133.789 Y92.555 E.04355
G1 X135.189 Y92.459 E.044
G1 X136.279 Y92.57 E.03435
G1 X137.342 Y92.839 E.03438
G1 X138.512 Y93.345 E.03997
G1 X139.593 Y94.056 E.04057
G1 X140.538 Y94.946 E.0407
G1 X141.374 Y96.087 E.04435
G1 X141.97 Y97.344 E.04362
G1 X142.322 Y98.688 E.04356
G1 X142.417 Y100.108 E.04462
G1 X142.266 Y101.396 E.04066
G1 X141.901 Y102.619 E.04002
G1 X141.425 Y103.603 E.03427
G1 X140.808 Y104.512 E.03445
G1 X139.93 Y105.44 E.04006
G1 X138.789 Y106.275 E.04433
G1 X137.533 Y106.871 E.04359
G1 X136.189 Y107.223 E.04356
G1 X134.769 Y107.318 E.04462
G1 X133.481 Y107.166 E.04066
G1 X132.258 Y106.801 E.04002
G1 X131.274 Y106.326 E.03426
G1 X130.365 Y105.708 E.03446
G1 X129.437 Y104.831 E.04003
G1 X128.602 Y103.69 E.04433
G1 X128.006 Y102.434 E.04359
G1 X127.654 Y101.09 E.04356
G1 X127.559 Y99.671 E.04459
G1 X127.694 Y98.505 E.0368
M204 S1000
G1 X127.694 Y98.505 F10800
G1 X128.067 Y98.547
M204 S800
G1 F1200
G1 X128.073 Y98.488 E.00186
G1 X128.363 Y97.465 E.03334
G1 X128.791 Y96.516 E.03264
G1 X129.461 Y95.505 E.03803
G1 X130.307 Y94.611 E.03859
G1 X131.367 Y93.835 E.04119
G1 X132.559 Y93.266 E.04141
G1 X133.834 Y92.929 E.04135
G1 X135.168 Y92.836 E.04193
G1 X136.2 Y92.939 E.03252
G1 X137.235 Y93.201 E.03348
G1 X138.346 Y93.684 E.03798
G1 X139.371 Y94.361 E.03852
G1 X140.266 Y95.208 E.03864
G1 X141.058 Y96.295 E.04217
G1 X141.622 Y97.488 E.04138
G1 X141.953 Y98.765 E.04136
G1 X142.04 Y100.082 E.04138
G1 X141.899 Y101.305 E.0386
G1 X141.554 Y102.469 E.03807
G1 X141.092 Y103.427 E.03335
G1 X140.505 Y104.287 E.03265
G1 X139.668 Y105.168 E.0381
G1 X138.582 Y105.959 E.04213
G1 X137.389 Y106.522 E.04136
G1 X136.112 Y106.853 E.04136
G1 X134.795 Y106.941 E.04139
G1 X133.572 Y106.8 E.0386
G1 X132.408 Y106.455 E.03807
G1 X131.45 Y105.992 E.03336
G1 X130.59 Y105.406 E.03263
G1 X129.709 Y104.569 E.0381
G1 X128.918 Y103.483 E.04213
G1 X128.355 Y102.29 E.04136
G1 X128.024 Y101.012 E.04139
G1 X127.936 Y99.697 E.04132
G1 X128.06 Y98.607 E.0344
M204 S1000
G1 X128.432 Y98.649 F10800
M204 S800
G1 F1200
G1 X128.441 Y98.575 E.00234
G1 X128.712 Y97.607 E.03152
G1 X129.129 Y96.685 E.03173
G1 X129.766 Y95.728 E.03605
G1 X130.568 Y94.883 E.03653
G1 X131.574 Y94.15 E.03903
G1 X132.704 Y93.614 E.03921
G1 X133.912 Y93.299 E.03914
G1 X135.146 Y93.213 E.03879
G1 X136.148 Y93.313 E.03157
G1 X137.126 Y93.562 E.03164
G1 X138.179 Y94.023 E.03604
G1 X139.149 Y94.666 E.03649
G1 X139.994 Y95.469 E.03655
G1 X140.725 Y96.473 E.03894
G1 X141.261 Y97.601 E.03916
G1 X141.578 Y98.809 E.03916
G1 X141.664 Y100.057 E.03922
G1 X141.533 Y101.215 E.03654
G1 X141.208 Y102.32 E.03611
G1 X140.772 Y103.226 E.03153
G1 X140.202 Y104.061 E.0317
G1 X139.407 Y104.895 E.03613
G1 X138.404 Y105.626 E.03891
G1 X137.276 Y106.162 E.03916
G1 X136.068 Y106.478 E.03915
G1 X134.82 Y106.564 E.03922
G1 X133.662 Y106.434 E.03654
G1 X132.557 Y106.109 E.03611
G1 X131.651 Y105.673 E.03153
G1 X130.816 Y105.103 E.0317
G1 X129.982 Y104.308 E.03613
G1 X129.251 Y103.305 E.03891
G1 X128.715 Y102.177 E.03916
G1 X128.399 Y100.968 E.03918
G1 X128.312 Y99.721 E.03919
G1 X128.426 Y98.708 E.03196
M204 S1000
G1 X128.426 Y98.708 F10800
G1 X128.798 Y98.749
M204 S800
G1 F1200
G1 X128.808 Y98.662 E.00275
G1 X129.072 Y97.723 E.03058
G1 X129.466 Y96.855 E.02989
G1 X130.07 Y95.951 E.03409
G1 X130.829 Y95.157 E.03444
G1 X131.781 Y94.466 E.03688
G1 X132.818 Y93.974 E.03599
G1 X133.957 Y93.674 E.03693
G1 X135.125 Y93.589 E.03672
G1 X136.096 Y93.687 E.0306
G1 X137.017 Y93.924 E.02982
G1 X138.012 Y94.362 E.03409
G1 X138.926 Y94.97 E.03442
G1 X139.721 Y95.73 E.03448
G1 X140.41 Y96.68 E.0368
G1 X140.901 Y97.715 E.03592
G1 X141.203 Y98.854 E.03695
G1 X141.287 Y100.033 E.03706
G1 X141.166 Y101.125 E.03445
G1 X140.861 Y102.171 E.03416
G1 X140.439 Y103.049 E.03054
G1 X139.9 Y103.835 E.02988
G1 X139.147 Y104.622 E.03415
G1 X138.197 Y105.311 E.0368
G1 X137.162 Y105.802 E.03592
G1 X136.023 Y106.104 E.03695
G1 X134.844 Y106.188 E.03706
G1 X133.752 Y106.067 E.03445
G1 X132.706 Y105.762 E.03416
G1 X131.828 Y105.339 E.03056
G1 X131.042 Y104.801 E.02986
G1 X130.255 Y104.048 E.03415
G1 X129.566 Y103.098 E.0368
G1 X129.075 Y102.063 E.03592
G1 X128.773 Y100.923 E.03698
G1 X128.689 Y99.745 E.03703
G1 X128.792 Y98.809 E.02952
M204 S1000
G1 X128.792 Y98.809 F10800
G1 X129.165 Y98.849
M204 S800
G1 F1200
G1 X129.176 Y98.747 E.00322
G1 X129.421 Y97.865 E.0287
G1 X129.802 Y97.026 E.02889
G1 X130.374 Y96.175 E.03215
G1 X131.088 Y95.43 E.03235
G1 X131.987 Y94.782 E.03475
G1 X132.962 Y94.323 E.03379
G1 X134.002 Y94.048 E.03373
G1 X135.105 Y93.966 E.03468
G1 X136.017 Y94.055 E.02873
G1 X136.908 Y94.285 E.02885
G1 X137.844 Y94.699 E.03209
G1 X138.702 Y95.274 E.03238
G1 X139.447 Y95.989 E.03238
G1 X140.094 Y96.886 E.03468
G1 X140.553 Y97.859 E.03373
G1 X140.834 Y98.933 E.03481
G1 X140.91 Y100.01 E.03385
G1 X140.799 Y101.037 E.03239
G1 X140.514 Y102.022 E.03215
G1 X140.119 Y102.848 E.02871
G1 X139.598 Y103.609 E.02892
G1 X138.887 Y104.348 E.03215
G1 X137.991 Y104.994 E.03463
G1 X137.018 Y105.454 E.03375
G1 X135.944 Y105.734 E.0348
G1 X134.867 Y105.811 E.03385
G1 X133.84 Y105.7 E.03239
G1 X132.855 Y105.415 E.03215
G1 X132.029 Y105.02 E.02871
G1 X131.268 Y104.499 E.02892
G1 X130.529 Y103.788 E.03215
G1 X129.883 Y102.892 E.03463
G1 X129.423 Y101.918 E.03377
G1 X129.143 Y100.845 E.03477
G1 X129.066 Y99.768 E.03385
G1 X129.158 Y98.908 E.02712
M204 S1000
G1 X129.158 Y98.908 F10800
G1 X129.531 Y98.948
M204 S800
G1 F1200
G1 X129.543 Y98.833 E.00363
G1 X129.78 Y97.981 E.02773
G1 X130.139 Y97.197 E.02704
G1 X130.677 Y96.4 E.03015
G1 X131.348 Y95.704 E.03031
G1 X132.165 Y95.115 E.03158
G1 X133.077 Y94.682 E.03165
G1 X134.049 Y94.423 E.03154
G1 X135.085 Y94.343 E.03258
G1 X135.965 Y94.429 E.02772
G1 X136.797 Y94.646 E.02696
G1 X137.675 Y95.037 E.03014
G1 X138.477 Y95.577 E.03031
G1 X139.173 Y96.249 E.03033
G1 X139.777 Y97.091 E.03249
G1 X140.204 Y98.003 E.03157
G1 X140.459 Y98.978 E.0316
G1 X140.534 Y99.987 E.03172
G1 X140.432 Y100.949 E.03033
G1 X140.167 Y101.874 E.03017
G1 X139.786 Y102.672 E.02773
G1 X139.297 Y103.382 E.02703
G1 X138.628 Y104.073 E.03016
G1 X137.786 Y104.678 E.03251
G1 X136.874 Y105.105 E.03157
G1 X135.899 Y105.36 E.0316
G1 X134.89 Y105.434 E.03172
G1 X133.928 Y105.333 E.03033
G1 X133.003 Y105.068 E.03017
G1 X132.205 Y104.686 E.02774
G1 X131.495 Y104.197 E.02703
G1 X130.804 Y103.529 E.03013
G1 X130.199 Y102.687 E.03251
G1 X129.772 Y101.774 E.0316
G1 X129.517 Y100.8 E.03157
G1 X129.443 Y99.79 E.03175
G1 X129.525 Y99.007 E.02468
M204 S1000
G1 X129.525 Y99.007 F10800
M73 P3 R21
G1 X129.898 Y99.045
M204 S800
G1 F1200
G1 X129.911 Y98.918 E.004
G1 X130.13 Y98.124 E.02582
G1 X130.475 Y97.368 E.02606
G1 X130.979 Y96.626 E.02812
G1 X131.606 Y95.979 E.02825
G1 X132.37 Y95.432 E.02946
M73 Q3 S21
G1 X133.221 Y95.031 E.0295
G1 X134.128 Y94.792 E.02941
G1 X135.065 Y94.72 E.02947
G1 X135.885 Y94.798 E.02583
G1 X136.687 Y95.007 E.02599
G1 X137.505 Y95.374 E.02811
G1 X138.251 Y95.88 E.02826
G1 X138.898 Y96.507 E.02825
G1 X139.443 Y97.268 E.02935
G1 X139.844 Y98.117 E.02944
G1 X140.084 Y99.024 E.02942
G1 X140.157 Y99.966 E.02962
G1 X140.065 Y100.863 E.02827
G1 X139.82 Y101.727 E.02816
G1 X139.466 Y102.471 E.02583
G1 X138.995 Y103.155 E.02604
G1 X138.37 Y103.799 E.02814
G1 X137.609 Y104.344 E.02935
G1 X136.76 Y104.745 E.02944
G1 X135.853 Y104.985 E.02942
G1 X134.911 Y105.057 E.02962
G1 X134.014 Y104.966 E.02827
G1 X133.15 Y104.72 E.02817
G1 X132.406 Y104.367 E.02582
G1 X131.722 Y103.896 E.02604
G1 X131.078 Y103.27 E.02816
