; generated by PrusaSlicer 2.8.0 on 2024-11-03 at 20:58:01 UTC


;
;
; 

; external perimeters extrusion width = 0.45mm
; perimeters extrusion width = 0.45mm
; infill extrusion width = 0.45mm
; solid infill extrusion width = 0.45mm
; top infill extrusion width = 0.40mm
; first layer extrusion width = 0.42mm

M73 P0 R12
M73 Q0 S12
M201 X1000 Y1000 Z200 E5000 ; sets maximum accelerations, mm/sec^2
M203 X200 Y200 Z12 E120 ; sets maximum feedrates, mm / sec
M204 S1250 T1250 ; sets acceleration (S) and retract acceleration (R), mm/sec^2
M205 X8.00 Y8.00 Z0.40 E4.50 ; sets the jerk limits, mm/sec
M205 S0 T0 ; sets the minimum extruding and travel feed rate, mm/sec

; printing object miah-waterfall.stl id:0 copy 0
; stop printing object miah-waterfall.stl id:0 copy 0

;TYPE:Custom
M862.3 P "MK3S" ; printer model check
M862.1 P0.4 ; nozzle diameter check
M115 U3.14.0 ; tell printer latest fw version
G90 ; use absolute coordinates
M83 ; extruder relative mode
M104 S215 ; set extruder temp
M140 S60 ; set bed temp
M190 S60 ; wait for bed temp
M109 S215 ; wait for extruder temp
G28 W ; home all without mesh bed level
G80 X113.931 Y88.5468 W22.7924 H22.8036 ; mesh bed levelling

G1 Z0.2 F720
G1 Y-3 F1000 ; go outside print area
G92 E0
G1 X60 E9 F1000 ; intro line
G1 X100 E12.5 F1000 ; intro line

G92 E0
M221 S95

; Don't change E values below. Excessive value can damage the printer.

M907 E538 ; set extruder motor current
G21 ; set units to millimeters
G90 ; use absolute coordinates
M83 ; use relative distances for extrusion

M900 K0.05 ; Filament gcode LA 1.5
M900 K30 ; Filament gcode LA 1.0




M107
;LAYER_CHANGE
;Z:0.2
;HEIGHT:0.2
G1 E-.8 F2100
G1 Z.6 F720
G1 X116.382 Y93.171 F10800
G1 Z.2 F720
G1 E.8 F2100
M204 S800
;TYPE:Skirt/Brim
;WIDTH:0.42
G1 F1200
G1 X117.736 Y91.684 E.06306
G1 X119.334 Y90.462 E.06308
M73 Q1 S12
G1 X121.123 Y89.546 E.06302
G1 X123.048 Y88.964 E.06306
G1 X124.428 Y88.771 E.04369
M73 P1 R12
G1 X125.303 Y88.736 E.02746
G1 X127.053 Y88.866 E.05502
G1 X128.346 Y89.15 E.04151
G1 X130.226 Y89.864 E.06305
G1 X131.034 Y90.299 E.02877
G1 X132.134 Y91.037 E.04153
G1 X133.456 Y92.231 E.05585
G1 X134.06 Y92.922 E.02878
G1 X134.83 Y94 E.04154
G1 X135.74 Y95.793 E.06304
G1 X135.972 Y96.441 E.02158
G1 X136.396 Y98.171 E.05585
G1 X136.535 Y100.177 E.06305
G1 X136.314 Y102.176 E.06306
G1 X135.74 Y104.103 E.06304
G1 X134.83 Y105.897 E.06307
G1 X134.06 Y106.974 E.04151
G1 X133.456 Y107.666 E.0288
G1 X132.492 Y108.574 E.04152
G1 X131.034 Y109.597 E.05584
G1 X129.219 Y110.462 E.06304
G1 X128.346 Y110.746 E.02878
G1 X127.053 Y111.031 E.04151
G1 X125.046 Y111.162 E.06306
G1 X123.275 Y110.974 E.05584
G1 X122.602 Y110.831 E.02157
G1 X120.702 Y110.171 E.06307
G1 X118.951 Y109.182 E.06305
G1 X117.909 Y108.364 E.04154
G1 X117.246 Y107.73 E.02876
G1 X115.986 Y106.163 E.06305
G1 X115.117 Y104.608 E.05585
G1 X114.642 Y103.372 E.04152
G1 X114.398 Y102.487 E.02878
G1 X114.171 Y101.182 E.04153
G1 X114.12 Y99.401 E.05586
G1 X114.202 Y98.487 E.02877
G1 X114.449 Y97.185 E.04155
G1 X115.117 Y95.289 E.06303
G1 X115.425 Y94.673 E.02159
G1 X116.35 Y93.222 E.05395
M204 S1000
G1 X116.35 Y93.222 F10800
G1 X116.674 Y93.415
M204 S800
G1 F1200
G1 X116.687 Y93.393 E.0008
G1 X117.997 Y91.956 E.06097
G1 X119.541 Y90.777 E.06091
G1 X121.272 Y89.893 E.06094
G1 X123.132 Y89.331 E.06092
G1 X125.286 Y89.112 E.06789
G1 X127.002 Y89.239 E.05395
G1 X128.262 Y89.518 E.04046
G1 X130.078 Y90.211 E.06094
G1 X131.899 Y91.332 E.06705
G1 X133.196 Y92.503 E.05479
G1 X134.507 Y94.193 E.06706
G1 X135.387 Y95.926 E.06094
G1 X135.943 Y97.788 E.06093
G1 X136.158 Y100.177 E.07521
G1 X135.943 Y102.109 E.06095
G1 X135.387 Y103.971 E.06093
G1 X134.507 Y105.704 E.06094
G1 X133.196 Y107.393 E.06704
G1 X132.257 Y108.279 E.04048
G1 X130.827 Y109.283 E.05478
G1 X129.071 Y110.116 E.06094
G1 X127.002 Y110.657 E.06705
G1 X125.063 Y110.785 E.06093
G1 X123.132 Y110.565 E.06094
G1 X120.85 Y109.824 E.07523
G1 X119.159 Y108.867 E.06092
G1 X117.53 Y107.481 E.06706
G1 X116.31 Y105.969 E.06092
G1 X115.655 Y104.857 E.04046
G1 X114.995 Y103.239 E.05479
G1 X114.547 Y101.148 E.06705
G1 X114.497 Y99.401 E.0548
G1 X114.812 Y97.286 E.06705
G1 X115.457 Y95.452 E.06096
G1 X116.643 Y93.467 E.0725
M204 S1000
;WIPE_START
G1 F8640
G1 X116.674 Y93.415 E-.01398
G1 X116.687 Y93.393 E-.0059
G1 X117.997 Y91.956 E-.44899
G1 X119.137 Y91.086 E-.33113
;WIPE_END
G1 Z.6 F720
G1 X118.69 Y94.853 F10800
G1 Z.2 F720
G1 E.8 F2100
M204 S800
G1 F1200
G1 X119.775 Y93.689 E.04989
G1 X120.984 Y92.799 E.04707
G1 X122.328 Y92.14 E.04693
G1 X123.744 Y91.735 E.04618
G1 X124.958 Y91.596 E.03831
G1 X126.179 Y91.629 E.0383
M73 Q2 S12
G1 X127.733 Y91.942 E.0497
G1 X129.173 Y92.527 E.04873
G1 X130.507 Y93.389 E.0498
M73 P2 R12
G1 X131.631 Y94.461 E.0487
G1 X132.554 Y95.753 E.04979
G1 X133.208 Y97.171 E.04896
G1 X133.586 Y98.68 E.04878
G1 X133.677 Y100.263 E.04972
G1 X133.486 Y101.751 E.04704
G1 X133.047 Y103.149 E.04594
G1 X132.487 Y104.257 E.03893
G1 X131.788 Y105.251 E.0381
G1 X130.758 Y106.302 E.04614
G1 X129.432 Y107.23 E.05075
G1 X127.929 Y107.893 E.05151
G1 X126.327 Y108.25 E.05146
G1 X124.692 Y108.288 E.05128
G1 X123.487 Y108.107 E.03821
G1 X122.297 Y107.746 E.03899
G1 X120.979 Y107.096 E.04608
G1 X119.765 Y106.198 E.04735
G1 X118.733 Y105.1 E.04725
G1 X117.885 Y103.773 E.04938
G1 X117.305 Y102.332 E.0487
G1 X116.999 Y100.775 E.04975
G1 X116.99 Y99.221 E.04873
G1 X117.279 Y97.656 E.0499
G1 X117.845 Y96.202 E.04892
G1 X118.658 Y94.903 E.04805
M204 S1000
G1 X118.658 Y94.903 F10800
G1 X118.977 Y95.104
M204 S800
G1 F1200
G1 X119 Y95.069 E.00131
G1 X120.013 Y93.982 E.04659
G1 X121.166 Y93.129 E.04497
G1 X122.449 Y92.497 E.04484
G1 X123.803 Y92.108 E.04417
G1 X124.961 Y91.973 E.03655
G1 X126.152 Y92.006 E.03736
G1 X127.64 Y92.307 E.0476
G1 X129.014 Y92.869 E.04655
G1 X130.286 Y93.695 E.04755
G1 X131.357 Y94.721 E.0465
G1 X132.22 Y95.928 E.04652
G1 X132.847 Y97.281 E.04676
G1 X133.211 Y98.72 E.04654
G1 X133.301 Y100.234 E.04755
G1 X133.121 Y101.655 E.04491
G1 X132.703 Y102.994 E.04398
G1 X132.171 Y104.052 E.03713
G1 X131.489 Y105.021 E.03715
G1 X130.501 Y106.025 E.04417
G1 X129.232 Y106.909 E.04849
G1 X127.795 Y107.54 E.04921
G1 X126.299 Y107.873 E.04805
G1 X124.732 Y107.913 E.04915
G1 X123.557 Y107.736 E.03726
G1 X122.422 Y107.39 E.0372
G1 X121.162 Y106.765 E.0441
G1 X120.003 Y105.905 E.04525
G1 X119.021 Y104.855 E.04508
G1 X118.212 Y103.586 E.04719
G1 X117.662 Y102.209 E.04649
G1 X117.373 Y100.721 E.04753
G1 X117.367 Y99.238 E.0465
G1 X117.646 Y97.743 E.04768
G1 X118.189 Y96.356 E.0467
G1 X118.945 Y95.155 E.0445
M204 S1000
G1 X118.945 Y95.155 F10800
G1 X119.262 Y95.354
M204 S800
G1 F1200
G1 X119.288 Y95.312 E.00155
G1 X120.252 Y94.274 E.04442
G1 X121.348 Y93.459 E.04282
G1 X122.57 Y92.855 E.04274
G1 X123.863 Y92.481 E.0422
G1 X124.991 Y92.349 E.03561
G1 X126.125 Y92.382 E.03557
G1 X127.515 Y92.664 E.04447
G1 X128.824 Y93.195 E.04429
G1 X130.039 Y93.98 E.04535
G1 X131.061 Y94.955 E.04429
G1 X131.885 Y96.103 E.04431
G1 X132.486 Y97.391 E.04456
G1 X132.835 Y98.762 E.04436
G1 X132.924 Y100.205 E.04533
G1 X132.756 Y101.559 E.04278
G1 X132.359 Y102.839 E.04202
G1 X131.854 Y103.846 E.03532
G1 X131.189 Y104.791 E.03623
G1 X130.246 Y105.748 E.04213
G1 X129.032 Y106.589 E.04631
G1 X127.694 Y107.176 E.04581
G1 X126.27 Y107.497 E.04577
G1 X124.771 Y107.537 E.04702
G1 X123.653 Y107.371 E.03544
G1 X122.547 Y107.034 E.03625
G1 X121.346 Y106.435 E.04208
G1 X120.243 Y105.613 E.04313
G1 X119.309 Y104.611 E.04295
G1 X118.54 Y103.399 E.04501
G1 X118.019 Y102.086 E.04429
G1 X117.75 Y100.701 E.04424
G1 X117.741 Y99.288 E.0443
G1 X118.004 Y97.863 E.04543
G1 X118.518 Y96.541 E.04447
G1 X119.23 Y95.404 E.04206
M204 S1000
G1 X119.23 Y95.404 F10800
G1 X119.548 Y95.602
M204 S800
G1 F1200
G1 X119.578 Y95.555 E.00175
G1 X120.492 Y94.566 E.04222
G1 X121.532 Y93.789 E.0407
G1 X122.692 Y93.212 E.04062
G1 X123.923 Y92.853 E.0402
G1 X124.994 Y92.726 E.03382
G1 X126.097 Y92.759 E.0346
G1 X127.421 Y93.029 E.04237
M73 Q3 S12
G1 X128.665 Y93.538 E.04214
G1 X129.792 Y94.266 E.04207
G1 X130.766 Y95.191 E.04212
M73 P3 R12
G1 X131.552 Y96.28 E.04211
G1 X132.125 Y97.503 E.04235
G1 X132.46 Y98.804 E.04212
G1 X132.548 Y100.177 E.04314
G1 X132.391 Y101.464 E.04065
G1 X132.015 Y102.684 E.04003
G1 X131.524 Y103.664 E.03437
G1 X130.891 Y104.56 E.0344
G1 X129.99 Y105.47 E.04015
G1 X128.833 Y106.268 E.04407
G1 X127.56 Y106.823 E.04354
G1 X126.206 Y107.125 E.0435
G1 X124.81 Y107.162 E.04379
G1 X123.723 Y107.001 E.03445
G1 X122.673 Y106.678 E.03444
G1 X121.53 Y106.106 E.04008
G1 X120.482 Y105.322 E.04104
G1 X119.598 Y104.368 E.04078
G1 X118.869 Y103.213 E.04282
G1 X118.377 Y101.964 E.04209
G1 X118.124 Y100.648 E.04202
G1 X118.118 Y99.305 E.04211
G1 X118.362 Y97.982 E.04218
G1 X118.848 Y96.725 E.04226
G1 X119.516 Y95.653 E.0396
M204 S1000
G1 X119.516 Y95.653 F10800
G1 X119.833 Y95.851
M204 S800
G1 F1200
G1 X119.867 Y95.797 E.002
G1 X120.732 Y94.857 E.04005
G1 X121.716 Y94.119 E.03857
G1 X122.815 Y93.569 E.03853
G1 X123.983 Y93.226 E.03817
G1 X125.024 Y93.102 E.03287
G1 X126.069 Y93.135 E.03278
G1 X127.328 Y93.395 E.04031
G1 X128.505 Y93.879 E.0399
G1 X129.572 Y94.572 E.03989
G1 X130.493 Y95.451 E.03992
G1 X131.235 Y96.485 E.0399
G1 X131.776 Y97.646 E.04016
G1 X132.09 Y98.88 E.03992
G1 X132.172 Y100.149 E.03987
G1 X132.025 Y101.37 E.03856
G1 X131.67 Y102.53 E.03804
G1 X131.207 Y103.459 E.03255
G1 X130.592 Y104.33 E.03343
G1 X129.735 Y105.191 E.03809
G1 X128.665 Y105.93 E.04077
G1 X127.46 Y106.46 E.04127
G1 X126.176 Y106.748 E.04126
G1 X124.848 Y106.786 E.04166
G1 X123.82 Y106.636 E.03257
G1 X122.8 Y106.322 E.03346
G1 X121.714 Y105.777 E.0381
G1 X120.723 Y105.031 E.03889
G1 X119.886 Y104.125 E.03867
G1 X119.213 Y103.058 E.03955
G1 X118.743 Y101.875 E.03991
G1 X118.5 Y100.627 E.03987
G1 X118.492 Y99.355 E.03988
G1 X118.73 Y98.068 E.04104
G1 X119.193 Y96.878 E.04004
G1 X119.802 Y95.902 E.03607
M204 S1000
G1 X119.802 Y95.902 F10800
G1 X120.12 Y96.099
M204 S800
G1 F1200
G1 X120.157 Y96.038 E.00224
G1 X120.974 Y95.147 E.0379
G1 X121.901 Y94.448 E.0364
G1 X122.938 Y93.926 E.0364
G1 X124.044 Y93.598 E.03617
G1 X125.027 Y93.48 E.03104
G1 X126.041 Y93.511 E.03181
G1 X127.201 Y93.751 E.03714
G1 X128.316 Y94.206 E.03776
G1 X129.325 Y94.858 E.03767
G1 X130.197 Y95.686 E.0377
G1 X130.901 Y96.662 E.03773
G1 X131.415 Y97.757 E.03793
G1 X131.715 Y98.923 E.03775
G1 X131.795 Y100.123 E.03771
G1 X131.66 Y101.277 E.03643
G1 X131.325 Y102.376 E.03602
G1 X130.876 Y103.277 E.03156
G1 X130.294 Y104.098 E.03155
G1 X129.481 Y104.912 E.03607
G1 X128.467 Y105.609 E.03858
G1 X127.326 Y106.107 E.03903
G1 X126.112 Y106.376 E.03899
G1 X124.886 Y106.411 E.03846
G1 X123.889 Y106.265 E.03159
G1 X122.927 Y105.967 E.03158
G1 X121.9 Y105.448 E.03608
G1 X120.964 Y104.741 E.03678
G1 X120.176 Y103.883 E.03653
G1 X119.542 Y102.872 E.03742
G1 X119.101 Y101.753 E.03771
G1 X118.874 Y100.574 E.03765
G1 X118.87 Y99.372 E.03769
G1 X119.088 Y98.187 E.03778
G1 X119.523 Y97.062 E.03782
G1 X120.088 Y96.15 E.03364
M204 S1000
G1 X120.088 Y96.15 F10800
G1 X120.408 Y96.349
M204 S800
G1 F1200
G1 X120.468 Y96.253 E.00355
G1 X121.215 Y95.437 E.03469
G1 X122.087 Y94.776 E.03431
G1 X123.063 Y94.282 E.0343
G1 X124.106 Y93.971 E.03413
G1 X125.058 Y93.856 E.03007
G1 X126.012 Y93.888 E.02993
G1 X127.107 Y94.116 E.03507
G1 X128.156 Y94.548 E.03557
G1 X129.105 Y95.164 E.03547
G1 X129.924 Y95.947 E.03553
G1 X130.585 Y96.867 E.03552
G1 X131.055 Y97.869 E.0347
G1 X131.341 Y98.967 E.03558
G1 X131.418 Y100.098 E.03554
G1 X131.294 Y101.185 E.0343
G1 X130.981 Y102.222 E.03396
G1 X130.546 Y103.096 E.03061
G1 X129.996 Y103.866 E.02967
G1 X129.227 Y104.633 E.03405
G1 X128.269 Y105.288 E.03639
G1 X127.226 Y105.743 E.03568
G1 X126.082 Y106 E.03676
G1 X124.923 Y106.035 E.03636
G1 X123.986 Y105.9 E.02968
G1 X123.054 Y105.611 E.03059
G1 X122.086 Y105.12 E.03403
G1 X121.206 Y104.451 E.03466
M73 Q4 S12
G1 X120.466 Y103.642 E.03438
G1 X119.871 Y102.688 E.03525
G1 X119.458 Y101.633 E.03552
M73 P4 R12
G1 X119.248 Y100.522 E.03545
G1 X119.247 Y99.389 E.03552
G1 X119.455 Y98.274 E.03556
G1 X119.867 Y97.215 E.03563
G1 X120.376 Y96.4 E.03013
M204 S1000
G1 X120.376 Y96.4 F10800
G1 X120.694 Y96.598
M204 S800
G1 F1200
G1 X120.759 Y96.493 E.00387
G1 X121.458 Y95.726 E.03254
G1 X122.274 Y95.104 E.03217
G1 X123.188 Y94.638 E.03217
G1 X124.168 Y94.343 E.03209
G1 X125.06 Y94.233 E.02818
G1 X125.982 Y94.264 E.02892
G1 X127.011 Y94.481 E.03297
G1 X127.995 Y94.889 E.0334
G1 X128.858 Y95.45 E.03227
G1 X129.629 Y96.182 E.03333
G1 X130.251 Y97.044 E.03333
G1 X130.695 Y97.983 E.03257
G1 X130.966 Y99.012 E.03336
G1 X131.042 Y100.073 E.03335
G1 X130.927 Y101.094 E.03222
G1 X130.636 Y102.07 E.03193
G1 X130.23 Y102.889 E.02866
G1 X129.699 Y103.634 E.02869
G1 X128.974 Y104.353 E.03201
G1 X128.072 Y104.966 E.03419
G1 X127.092 Y105.39 E.03348
G1 X126.052 Y105.624 E.03342
G1 X124.961 Y105.66 E.03423
G1 X124.055 Y105.529 E.0287
G1 X123.182 Y105.256 E.02868
G1 X122.273 Y104.792 E.032
G1 X121.449 Y104.162 E.03252
G1 X120.757 Y103.401 E.03225
G1 X120.201 Y102.505 E.03306
G1 X119.816 Y101.513 E.03336
G1 X119.625 Y100.503 E.03223
G1 X119.621 Y99.44 E.03333
G1 X119.813 Y98.393 E.03338
G1 X120.197 Y97.399 E.03341
G1 X120.662 Y96.649 E.02767
M204 S1000
G1 X120.662 Y96.649 F10800
G1 X120.981 Y96.845
M204 S800
G1 F1200
G1 X121.05 Y96.733 E.00412
G1 X121.701 Y96.015 E.03039
G1 X122.462 Y95.431 E.03008
G1 X123.314 Y94.994 E.03002
G1 X124.23 Y94.715 E.03002
G1 X125.091 Y94.609 E.0272
G1 X125.952 Y94.64 E.02701
G1 X126.915 Y94.846 E.03088
G1 X127.833 Y95.23 E.0312
G1 X128.637 Y95.756 E.03012
G1 X129.355 Y96.442 E.03114
G1 X129.935 Y97.25 E.03119
G1 X130.346 Y98.127 E.03037
G1 X130.591 Y99.057 E.03015
G1 X130.665 Y100.05 E.03122
G1 X130.561 Y101.003 E.03006
G1 X130.29 Y101.918 E.02992
G1 X129.914 Y102.683 E.02673
G1 X129.401 Y103.401 E.02767
G1 X128.722 Y104.072 E.02993
G1 X127.876 Y104.643 E.032
G1 X126.96 Y105.036 E.03125
G1 X125.988 Y105.252 E.03122
G1 X124.997 Y105.284 E.03109
G1 X124.153 Y105.165 E.02672
G1 X123.31 Y104.901 E.0277
G1 X122.461 Y104.465 E.02992
G1 X121.693 Y103.874 E.03038
G1 X121.049 Y103.162 E.0301
G1 X120.531 Y102.322 E.03094
G1 X120.174 Y101.394 E.03118
G1 X119.999 Y100.451 E.03007
G1 X119.998 Y99.457 E.03117
G1 X120.172 Y98.511 E.03016
G1 X120.528 Y97.581 E.03122
G1 X120.95 Y96.896 E.02523
M204 S1000
G1 X120.95 Y96.896 F10800
G1 X121.269 Y97.092
M204 S800
G1 F1200
G1 X121.342 Y96.972 E.0044
G1 X121.945 Y96.303 E.02824
G1 X122.651 Y95.758 E.02796
G1 X123.442 Y95.349 E.02792
G1 X124.294 Y95.087 E.02795
G1 X125.093 Y94.987 E.02525
G1 X125.922 Y95.016 E.02601
G1 X126.817 Y95.211 E.02872
G1 X127.67 Y95.571 E.02903
G1 X128.414 Y96.061 E.02793
G1 X129.081 Y96.702 E.02901
G1 X129.601 Y97.426 E.02795
G1 X129.986 Y98.241 E.02826
G1 X130.217 Y99.104 E.02801
G1 X130.288 Y100.028 E.02906
G1 X130.194 Y100.914 E.02794
G1 X129.944 Y101.766 E.02784
G1 X129.582 Y102.502 E.02572
G1 X129.105 Y103.168 E.02569
G1 X128.471 Y103.79 E.02785
G1 X127.71 Y104.304 E.02879
G1 X126.86 Y104.672 E.02904
G1 X125.956 Y104.876 E.02906
G1 X125.033 Y104.908 E.02896
G1 X124.221 Y104.793 E.02571
G1 X123.439 Y104.547 E.0257
G1 X122.65 Y104.138 E.02786
G1 X121.937 Y103.587 E.02825
G1 X121.341 Y102.923 E.02798
G1 X120.862 Y102.14 E.02878
G1 X120.542 Y101.307 E.02798
M73 P4 R11
G1 X120.376 Y100.432 E.02792
G1 X120.372 Y99.507 E.029
G1 X120.531 Y98.628 E.02801
G1 X120.859 Y97.762 E.02904
G1 X121.238 Y97.143 E.02276
M204 S1000
G1 X121.238 Y97.143 F10800
G1 X121.557 Y97.338
M204 S800
G1 F1200
G1 X121.635 Y97.211 E.00467
G1 X122.19 Y96.589 E.02614
G1 X122.841 Y96.084 E.02583
G1 X123.571 Y95.704 E.0258
G1 X124.358 Y95.459 E.02584
G1 X125.124 Y95.363 E.02421
G1 X125.89 Y95.392 E.02403
G1 X126.719 Y95.575 E.02662
G1 X127.478 Y95.896 E.02584
G1 X128.167 Y96.346 E.0258
G1 X128.786 Y96.937 E.02683
G1 X129.269 Y97.605 E.02585
G1 X129.627 Y98.357 E.02611
G1 X129.842 Y99.152 E.02582
G1 X129.911 Y100.007 E.0269
G1 X129.827 Y100.826 E.02581
G1 X129.598 Y101.616 E.02579
G1 X129.267 Y102.295 E.02368
G1 X128.808 Y102.935 E.02469
G1 X128.22 Y103.508 E.02574
G1 X127.515 Y103.981 E.02662
G1 X126.727 Y104.319 E.02688
